svgs/sharp-solid/train-tunnel.svg

<svg xmlns="http://www.w3.org/2000/svg" viewBox="0 0 512 512"><!--! Font Awesome Pro 6.6.0 by @fontawesome - https://fontawesome.com License - https://fontawesome.com/license (Commercial License) Copyright 2024 Fonticons, Inc. --><path d="M256 0C114.6 0 0 114.6 0 256L0 512l105.4 0 64-64L112 448l0-320 288 0 0 320-57.4 0 64 64L512 512l0-256C512 114.6 397.4 0 256 0zM361.4 512l-64-64-82.7 0-64 64 210.7 0zM288 384a32 32 0 1 0 -64 0 32 32 0 1 0 64 0zm64-192l-192 0 0 128 192 0 0-128z"/></svg>

<svg xmlns="http://www.w3.org/2000/svg" viewBox="0 0 512 512"><!--! Font Awesome Pro 6.4.2 by @fontawesome - https://fontawesome.com License - https://fontawesome.com/license (Commercial License) Copyright 2023 Fonticons, Inc. --><path d="M256 0C114.6 0 0 114.6 0 256V512H105.4l64-64H112V128H400V448H342.6l64 64H512V256C512 114.6 397.4 0 256 0zM361.4 512l-64-64H214.6l-64 64H361.4zM288 384a32 32 0 1 0 -64 0 32 32 0 1 0 64 0zm64-192H160V320H352V192z"/></svg>
